Systematic/src/svg/core-shader-options.svg

<svg xmlns="http://www.w3.org/2000/svg" xml:space="preserve" width="312.974" height="266.667"><defs><clipPath id="a" clipPathUnits="userSpaceOnUse"><path d="M0 256h256V0H0Z"/></clipPath><clipPath id="b" clipPathUnits="userSpaceOnUse"><path d="M10.635 228h234.73V28H10.635Z"/></clipPath></defs><g clip-path="url(#a)" transform="matrix(1.33333 0 0 -1.33333 -14.18 304)"><g clip-path="url(#b)" style="opacity:.5"><path d="M0 0h-112.992l-2.338-3.84-56-92-2.532-4.16 2.532-4.159 56-92 2.338-3.841H0l2.338 3.841 56 92L60.869-100l-2.531 4.16-56 92z" style="fill:#fff;fill-opacity:1;fill-rule:nonzero;stroke:none" transform="translate(184.496 228)"/></g></g><path d="M0 0h-104l-56-92 56-92H0l56 92z" style="fill:#737373;fill-opacity:1;fill-rule:nonzero;stroke:none" transform="matrix(1.33333 0 0 -1.33333 225.82 10.667)"/><path d="M0 0h88L48 72Z" style="fill:#ccc;fill-opacity:1;fill-rule:nonzero;stroke:none" transform="matrix(1.33333 0 0 -1.33333 39.154 133.333)"/><path d="m0 0 40 72L88 0Z" style="fill:#999;fill-opacity:1;fill-rule:nonzero;stroke:none" transform="matrix(1.33333 0 0 -1.33333 156.487 133.333)"/><path d="m0 0-40 72-40-72Z" style="fill:#4c4c4c;fill-opacity:1;fill-rule:nonzero;stroke:none" transform="matrix(1.33333 0 0 -1.33333 209.82 229.333)"/><path d="m0 0 48-72L88 0Z" style="fill:#666;fill-opacity:1;fill-rule:nonzero;stroke:none" transform="matrix(1.33333 0 0 -1.33333 39.154 133.333)"/><path d="M0 0h88L40-72Z" style="fill:#333;fill-opacity:1;fill-rule:nonzero;stroke:none" transform="matrix(1.33333 0 0 -1.33333 156.487 133.333)"/><path d="M0 0h80L40-72Z" style="fill:#b3b3b3;fill-opacity:1;fill-rule:nonzero;stroke:none" transform="matrix(1.33333 0 0 -1.33333 103.154 37.333)"/></svg>

<?xml version="1.0" encoding="UTF-8" standalone="no"?>
<svg
   xmlns:dc="http://purl.org/dc/elements/1.1/"
   xmlns:cc="http://creativecommons.org/ns#"
   xmlns:rdf="http://www.w3.org/1999/02/22-rdf-syntax-ns#"
   xmlns:svg="http://www.w3.org/2000/svg"
   xmlns="http://www.w3.org/2000/svg"
   viewBox="0 0 312.974 266.66665"
   height="266.66666"
   width="312.974"
   xml:space="preserve"
   id="svg2"
   version="1.1"><metadata
     id="metadata8"><rdf:RDF><cc:Work
         rdf:about=""><dc:format>image/svg+xml</dc:format><dc:type
           rdf:resource="http://purl.org/dc/dcmitype/StillImage" /></cc:Work></rdf:RDF></metadata><defs
     id="defs6"><clipPath
       id="clipPath18"
       clipPathUnits="userSpaceOnUse"><path
         id="path16"
         d="M 0,256 H 256 V 0 H 0 Z" /></clipPath><clipPath
       id="clipPath26"
       clipPathUnits="userSpaceOnUse"><path
         id="path24"
         d="M 10.6345,228 H 245.365 V 28 H 10.6345 Z" /></clipPath></defs><g
     transform="matrix(1.3333333,0,0,-1.3333333,-14.179333,303.99999)"
     id="g10"><g
       id="g12"><g
         clip-path="url(#clipPath18)"
         id="g14"><g
           id="g20"><g
             id="g22" /><g
             id="g34"><g
               style="opacity:0.5"
               id="g32"
               clip-path="url(#clipPath26)"><g
                 id="g30"
                 transform="translate(184.4961,228)"><path
                   id="path28"
                   style="fill:#ffffff;fill-opacity:1;fill-rule:nonzero;stroke:none"
                   d="m 0,0 h -4.496 -104 -4.496 l -2.338,-3.84 -56,-92 -2.532,-4.16 2.532,-4.159 56,-92 2.338,-3.841 h 4.496 104 H 0 l 2.338,3.841 56,92 2.531,4.159 -2.531,4.16 -56,92 z" /></g></g></g></g></g></g><g
       transform="translate(180,220)"
       id="g36"><path
         id="path38"
         style="fill:#737373;fill-opacity:1;fill-rule:nonzero;stroke:none"
         d="m 0,0 h -104 l -56,-92 56,-92 H 0 l 56,92 z" /></g><g
       transform="translate(40,128)"
       id="g40"><path
         id="path42"
         style="fill:#cccccc;fill-opacity:1;fill-rule:nonzero;stroke:none"
         d="M 0,0 H 88 L 48,72 Z" /></g><g
       transform="translate(128,128)"
       id="g44"><path
         id="path46"
         style="fill:#999999;fill-opacity:1;fill-rule:nonzero;stroke:none"
         d="M 0,0 40,72 88,0 Z" /></g><g
       transform="translate(168,56)"
       id="g48"><path
         id="path50"
         style="fill:#4c4c4c;fill-opacity:1;fill-rule:nonzero;stroke:none"
         d="M 0,0 -40,72 -80,0 Z" /></g><g
       transform="translate(40,128)"
       id="g52"><path
         id="path54"
         style="fill:#666666;fill-opacity:1;fill-rule:nonzero;stroke:none"
         d="M 0,0 48,-72 88,0 Z" /></g><g
       transform="translate(128,128)"
       id="g56"><path
         id="path58"
         style="fill:#333333;fill-opacity:1;fill-rule:nonzero;stroke:none"
         d="M 0,0 H 88 L 40,-72 Z" /></g><g
       transform="translate(88,200)"
       id="g60"><path
         id="path62"
         style="fill:#b3b3b3;fill-opacity:1;fill-rule:nonzero;stroke:none"
         d="M 0,0 H 80 L 40,-72 Z" /></g></g></svg>
